!!!OTL: Albertus Magnus.
!!!OTL-incipit: DIE KOENIGIN BLICKT DURCHS FENSTER
!!!ARE: Europa, Mitteleuropa, Deutschland, Rhein
!!!SCT: Z1069
!!!TXL: @@DE
!!!YEM: Copyright 1995, estate of Helmut Schaffrath.
**kern	**text
*ICvox	*
*M6/8	*
*k[b-e-]	*
*g:	*
!LO:TX:a:t=Rheiniſch.	!
{8d	Die
=1	=1
8.g	Kö-
16g	-ni-
8g	-gin
4a	blickt
8b/	durch's
=2	=2
(16ccL	Fen-
16bJ)	.
4a	-ſter,
4r}	.
{8cc	ein
=3	=3
8b	Jüngling
8g	.
8cc	der
8ddL	ſtand
8ee-J	.
8dd	dar-
=4	=4
4.cc	-aus,
8r	.
8r}	.
{8g	ſie
=5	=5
4cc	winkt
8dd	ihm
8ee-XL	von
8ddJ	.
8cc	dem
=6	=6
8dd	Söl-
4a	-ler,
4r}	.
{8cc	er
=7	=7
8b-L	ſoll-
8aJ	.
8g	-te
8a	kom-
8b-/	-men
8a	in's
=8	=8
4.g;	Haus.
4r}	.
==	==
!!!AGN: Romanze, Ballade
!!!ONB: ESAC (Essen Associative Code) Database: ZUCCAL
!!!AMT: compound duple
!!!AIN: vox
!!!EED: Helmut Schaffrath
!!!EEV: 1.0
!!!GTL: II. Gau- Leuschen.
!!!URL-scan: https://www.digitale-sammlungen.de/de/view/bsb11160573?page=151
!!!ENC: Anna Maria Matuszewska
!!!EEV: 2025/03/02
*-	*-
